www/assets/icons/border_bottom.svg

<svg xmlns="http://www.w3.org/2000/svg" width="24" height="24" viewBox="0 0 24 24" fill='currentColor'><path d="M9 11H7v2h2zm4 4h-2v2h2zM9 3H7v2h2zm4 8h-2v2h2zM5 3H3v2h2zm8 4h-2v2h2zm4 4h-2v2h2zm-4-8h-2v2h2zm4 0h-2v2h2zm2 10h2v-2h-2zm0 4h2v-2h-2zM5 7H3v2h2zm14-4v2h2V3zm0 6h2V7h-2zM5 11H3v2h2zM3 21h18v-2H3zm2-6H3v2h2z"/></svg>

<svg width="24" height="24" viewBox="0 0 24 24" xmlns="http://www.w3.org/2000/svg" fill='currentColor'><path d="M9 11H7V13H9V11ZM13 15H11V17H13V15ZM9 3H7V5H9V3ZM13 11H11V13H13V11ZM5 3H3V5H5V3ZM13 7H11V9H13V7ZM17 11H15V13H17V11ZM13 3H11V5H13V3ZM17 3H15V5H17V3ZM19 13H21V11H19V13ZM19 17H21V15H19V17ZM5 7H3V9H5V7ZM19 3V5H21V3H19ZM19 9H21V7H19V9ZM5 11H3V13H5V11ZM3 21H21V19H3V21ZM5 15H3V17H5V15Z"/></svg>
